src/icons/outline/symbols/puzzle.svg

<svg width="24" height="24" viewBox="0 0 24 24" fill="none" xmlns="http://www.w3.org/2000/svg">
<g clip-path="url(#clip0_4922_1054)">
<path d="M18.8297 22.9998C18.2857 22.9998 17.7518 22.8889 17.2381 22.6873C16.4725 22.3749 15.8278 21.8408 15.3645 21.1555C15.1932 20.9036 15.0623 20.6416 14.9515 20.3695L12.9368 22.385C12.141 23.1812 10.7308 23.1812 9.93498 22.385L8.02106 20.4703C7.83974 20.2889 7.76923 20.0369 7.80952 19.795C7.85989 19.5431 8.02106 19.3415 8.26282 19.2408C8.66575 19.0694 9.01832 18.8074 9.29029 18.4648C9.56227 18.1322 9.75366 17.7291 9.83425 17.2958C9.91484 16.8725 9.89469 16.4291 9.76374 16.0058C9.64286 15.5926 9.41117 15.2097 9.0989 14.9074C8.78663 14.605 8.41392 14.3732 8.00092 14.2422C7.58791 14.1213 7.14469 14.0911 6.71154 14.1717C6.28846 14.2523 5.88553 14.4438 5.54304 14.7159C5.21062 14.988 4.93864 15.3407 4.7674 15.7438C4.66667 15.9756 4.4652 16.1469 4.21337 16.1973C3.96154 16.2376 3.70971 16.1671 3.53846 15.9857L1.62454 14.0709C1.23168 13.6779 1 13.1337 1 12.5693C1 12.005 1.22161 11.4709 1.62454 11.0678L3.63919 9.05222C3.36722 8.94136 3.10531 8.81035 2.85348 8.63903C2.1685 8.17546 1.63462 7.53048 1.32234 6.76458C1.01007 5.99867 0.929487 5.1723 1.09066 4.35601C1.25183 3.53971 1.64469 2.80404 2.22894 2.21953C2.81319 1.63503 3.54853 1.242 4.36447 1.08075C5.17033 0.919512 6.00641 1.00013 6.77198 1.31254C7.53755 1.63503 8.18223 2.15907 8.6456 2.84435C8.81685 3.0963 8.9478 3.35831 9.05861 3.63041L11.0733 1.61487C11.869 0.818733 13.2793 0.818733 14.0751 1.61487L15.989 3.53971C16.1703 3.72111 16.2408 3.97305 16.2005 4.21492C16.1502 4.45678 15.9789 4.66842 15.7473 4.76919C15.3443 4.94051 14.9918 5.20253 14.7198 5.54517C14.4478 5.87774 14.2564 6.28085 14.1758 6.71419C14.0952 7.13745 14.1154 7.58087 14.2363 7.99405C14.3672 8.40724 14.5888 8.7902 14.9011 9.1026C15.2033 9.40494 15.5861 9.63672 15.9991 9.76773C16.4121 9.88867 16.8553 9.9189 17.2885 9.8282C17.7115 9.74757 18.1145 9.5561 18.457 9.284C18.7894 9.01191 19.0614 8.65919 19.2225 8.25608C19.3233 8.02429 19.5247 7.85297 19.7766 7.80258C20.0284 7.76227 20.2802 7.83281 20.4515 8.01421L22.3755 9.92898C22.7784 10.3321 23 10.8662 23 11.4306C23 11.9949 22.7784 12.5391 22.3755 12.9321L20.3608 14.9477C20.6328 15.0585 20.8947 15.1895 21.1465 15.3609C21.8315 15.8244 22.3654 16.4694 22.6777 17.2353C22.9899 18.0012 23.0806 18.8276 22.9194 19.6439C22.7582 20.4602 22.3654 21.1958 21.7811 21.7804C21.1969 22.3649 20.4615 22.7579 19.6456 22.9191C19.3736 22.9695 19.1016 22.9998 18.8297 22.9998ZM15.4148 18.0718C15.5156 18.0718 15.6062 18.0919 15.707 18.1322C15.989 18.2532 16.1703 18.5253 16.1703 18.8276C16.1703 19.3516 16.3214 19.8656 16.6236 20.2989C16.9258 20.7323 17.3288 21.0749 17.8123 21.2765C18.2958 21.478 18.8297 21.5284 19.3434 21.4276C19.8571 21.3269 20.3306 21.0749 20.7033 20.702C21.076 20.3292 21.3278 19.8656 21.4286 19.3415C21.5293 18.8276 21.4789 18.2935 21.2775 17.8097C21.076 17.326 20.7335 16.9128 20.3004 16.6206C19.8672 16.3283 19.3535 16.1772 18.8297 16.1772C18.5275 16.1772 18.2454 15.9958 18.1346 15.7136C18.0137 15.4314 18.0842 15.1089 18.2958 14.8872L21.3077 11.874C21.4185 11.7631 21.489 11.6019 21.489 11.4406C21.489 11.2794 21.4286 11.1181 21.3077 11.0073L20.0788 9.77781C19.8874 10.0298 19.6557 10.2615 19.4139 10.4631C18.88 10.8964 18.2555 11.1887 17.5806 11.3197C16.9157 11.4507 16.2106 11.4104 15.5659 11.2189C14.9112 11.0174 14.3169 10.6546 13.8333 10.1809C13.3498 9.69719 12.9973 9.1026 12.7958 8.44755C12.5943 7.80258 12.5641 7.09714 12.6951 6.43201C12.826 5.76688 13.1181 5.13199 13.5513 4.60795C13.7527 4.35601 13.9844 4.1343 14.2363 3.94282L13.0073 2.71334C12.7857 2.49163 12.3727 2.49163 12.1511 2.71334L9.1392 5.72657C8.92766 5.9382 8.59524 6.00875 8.31319 5.88781C8.03114 5.76688 7.84982 5.49479 7.84982 5.19245C7.84982 4.66841 7.69872 4.15445 7.40659 3.72111C7.11447 3.28777 6.70147 2.94513 6.21795 2.74357C5.73443 2.54202 5.20055 2.49163 4.68681 2.59241C4.17308 2.69319 3.69963 2.94513 3.32692 3.318C2.95421 3.69088 2.70238 4.16453 2.60165 4.67849C2.50092 5.19246 2.55128 5.72658 2.75275 6.21031C2.95421 6.69403 3.2967 7.10722 3.72985 7.39947C4.163 7.69172 4.67674 7.84289 5.20055 7.84289C5.50275 7.84289 5.7848 8.02429 5.8956 8.30647C6.01648 8.58864 5.94597 8.91113 5.73443 9.13284L2.72253 12.1461C2.61172 12.2569 2.54121 12.4182 2.54121 12.5794C2.54121 12.7407 2.60165 12.8918 2.72253 13.0128L3.95147 14.2422C4.14286 13.9903 4.37454 13.7585 4.6163 13.5569C5.15018 13.1236 5.77472 12.8314 6.44963 12.7003C7.11447 12.5693 7.8196 12.6096 8.46429 12.8011C9.10897 13.0027 9.71337 13.3554 10.1969 13.8391C10.6804 14.3229 11.033 14.9174 11.2344 15.5725C11.4359 16.2275 11.4661 16.9229 11.3352 17.588C11.2042 18.2532 10.9121 18.8881 10.4789 19.4121C10.2775 19.664 10.0458 19.8857 9.79396 20.0772L11.0229 21.3067C11.2445 21.5284 11.6575 21.5284 11.8791 21.3067L14.891 18.2935C15.0321 18.1524 15.2234 18.0718 15.4249 18.0718H15.4148Z" fill="#3C3B44"/>
</g>
<defs>
<clipPath id="clip0_4922_1054">
<rect width="24" height="24" fill="white"/>
</clipPath>
</defs>
</svg>

<svg xmlns="http://www.w3.org/2000/svg" width="24" height="24" fill="none" viewBox="0 0 24 24"><g clip-path="url(#a)"><path fill="currentColor" d="M18.83 23a4.3 4.3 0 0 1-1.592-.313 4.16 4.16 0 0 1-2.286-2.318l-2.015 2.016c-.796.796-2.206.796-3.002 0L8.021 20.47a.77.77 0 0 1-.211-.675.75.75 0 0 1 .453-.554 2.6 2.6 0 0 0 1.027-.776c.272-.333.464-.736.544-1.17.08-.423.06-.866-.07-1.29a2.5 2.5 0 0 0-.665-1.098A2.8 2.8 0 0 0 8 14.242a2.8 2.8 0 0 0-1.29-.07c-.423.08-.825.272-1.168.544a2.7 2.7 0 0 0-.776 1.028.77.77 0 0 1-.554.453.75.75 0 0 1-.675-.211L1.625 14.07A2.14 2.14 0 0 1 1 12.569c0-.564.222-1.098.625-1.501l2.014-2.016a4.16 4.16 0 0 1-2.317-2.288 4.2 4.2 0 0 1-.231-2.408A4.14 4.14 0 0 1 2.229 2.22a4.19 4.19 0 0 1 4.543-.907c.766.322 1.41.846 1.874 1.531.17.252.302.514.413.786l2.014-2.015c.796-.796 2.206-.796 3.002 0L15.99 3.54a.77.77 0 0 1 .212.675.79.79 0 0 1-.454.554 2.6 2.6 0 0 0-1.027.776 2.6 2.6 0 0 0-.544 1.17c-.08.422-.06.866.06 1.279.131.413.353.796.665 1.109.302.302.685.534 1.098.665a2.7 2.7 0 0 0 2.458-.484 2.6 2.6 0 0 0 .765-1.028.77.77 0 0 1 .555-.453c.251-.04.503.03.674.211l1.924 1.915c.403.403.625.937.625 1.502 0 .564-.222 1.108-.625 1.501l-2.014 2.016a4.16 4.16 0 0 1 2.317 2.288c.312.765.403 1.592.241 2.408a4.14 4.14 0 0 1-1.138 2.136 4.14 4.14 0 0 1-2.135 1.14c-.272.05-.544.08-.816.08m-3.415-4.928a.76.76 0 0 1 .755.756c0 .524.151 1.038.454 1.47a2.74 2.74 0 0 0 1.188.979 2.654 2.654 0 0 0 3.617-1.936c.1-.513.05-1.047-.151-1.531a2.7 2.7 0 0 0-.978-1.19 2.63 2.63 0 0 0-1.47-.443.75.75 0 0 1-.695-.463.76.76 0 0 1 .16-.827l3.013-3.013a.63.63 0 0 0 .181-.433.6.6 0 0 0-.181-.434l-1.23-1.23a4.15 4.15 0 0 1-2.498 1.542 4.25 4.25 0 0 1-2.014-.1 4.3 4.3 0 0 1-1.733-1.038 4.2 4.2 0 0 1-1.037-1.733 4.14 4.14 0 0 1-.1-2.016c.13-.665.422-1.3.855-1.824q.305-.378.685-.665l-1.229-1.23a.634.634 0 0 0-.856 0L9.14 5.727a.757.757 0 0 1-1.29-.534 2.63 2.63 0 0 0-.442-1.472 2.7 2.7 0 0 0-1.189-.977A2.654 2.654 0 0 0 2.753 6.21c.201.484.544.897.977 1.19s.947.443 1.47.443c.303 0 .585.181.696.463.12.283.05.605-.162.827l-3.011 3.013a.63.63 0 0 0-.182.433.6.6 0 0 0 .182.434l1.228 1.23c.192-.253.424-.485.665-.686A4.16 4.16 0 0 1 6.45 12.7a4.26 4.26 0 0 1 2.014.101c.645.202 1.25.554 1.733 1.038a4.2 4.2 0 0 1 1.037 1.733 4.14 4.14 0 0 1 .101 2.016 4.1 4.1 0 0 1-.856 1.824 4 4 0 0 1-.685.665l1.229 1.23a.634.634 0 0 0 .856 0l3.012-3.013a.76.76 0 0 1 .534-.222z"/></g><defs><clipPath id="a"><path fill="currentColor" d="M0 0h24v24H0z"/></clipPath></defs></svg>
